src/assets/images/icon/paw/icon-paw.svg

<svg xmlns="http://www.w3.org/2000/svg" width="100" height="100" fill="none"><path fill="#BEBEBE" d="M59.5 42C66 42 70 32.5 70 26.5c0-5-2.5-11-7.5-11C56 15.5 52 25 52 31c0 5 2.5 11 7.5 11Zm-19 0c5 0 7.5-6 7.5-11 0-6.5-4-16-10.5-16-5 0-7.5 6-7.5 11-.5 6.5 3.5 16 10.5 16Zm37-5c-6.5 0-11 9-11 15.5 0 4.5 2 9 6.5 9 6.5 0 11-9 11-15.5 0-4.5-2.5-9-6.5-9ZM34 52.5C34 46 29 37 23 37c-4.5 0-6.5 4.5-6.5 9 0 6.5 5 15.5 11 15.5 4.5 0 6.5-4.5 6.5-9Zm16-1c-10 0-23.5 16-23.5 27 0 5 3.5 6.5 7.5 6.5 6 0 10.5-4 16-4 5 0 9.5 4 15 4 4 0 8.5-1 8.5-6.5 0-11-13.5-27-23.5-27Z"/></svg>

<svg width="100" height="100" viewBox="0 0 100 100" fill="none" xmlns="http://www.w3.org/2000/svg">
<g id="Tabs / goods specialists articles/Icon Paw">
<path id="Vector" d="M59.5 42C66 42 70 32.5 70 26.5C70 21.5 67.5 15.5 62.5 15.5C56 15.5 52 25 52 31C52 36 54.5 42 59.5 42ZM40.5 42C45.5 42 48 36 48 31C48 24.5 44 15 37.5 15C32.5 15 30 21 30 26C29.5 32.5 33.5 42 40.5 42ZM77.5 37C71 37 66.5 46 66.5 52.5C66.5 57 68.5 61.5 73 61.5C79.5 61.5 84 52.5 84 46C84 41.5 81.5 37 77.5 37ZM34 52.5C34 46 29 37 23 37C18.5 37 16.5 41.5 16.5 46C16.5 52.5 21.5 61.5 27.5 61.5C32 61.5 34 57 34 52.5ZM50 51.5C40 51.5 26.5 67.5 26.5 78.5C26.5 83.5 30 85 34 85C40 85 44.5 81 50 81C55 81 59.5 85 65 85C69 85 73.5 84 73.5 78.5C73.5 67.5 60 51.5 50 51.5Z" fill="#BEBEBE"/>
</g>
</svg>
